X:24
T:Connaughtman's Rambles
M:6/8
R:jig
C:Traditional
K:D
FAA dAA | BAB dBA | FAA dfe | dBA B2A |
FAA dAA | BAB def | gfe dfe |[1 dBA B2A :|[2 dBA B2e |]
|: fbb faa | fed deg | fbb faa | fed e3 |
fbb faa | fed def | gfe dfe |[1 dBA B2e :|[2 dBA B2A |]

%%newpage
%%scale .75
%%staffsep 35

